X:1
T:Nunc Dimitte, 10.10.10.10.6
T:Nunc Dimitte, 10.10.10.10.6
T:William Wells Hewitt, 1902
T:Public Domain Courtesy of the Cyber Hymnal™
C:William Wells Hewitt, 1902
Z:Public Domain
Z:Courtesy of the Cyber Hymnal™
%%score ( 1 2 ) ( 3 4 )
L:1/8
Q:1/4=107
M:3/4
K:C
V:1 treble 
V:2 treble 
V:3 bass 
V:4 bass 
V:1
 [EG]2 | ([EG]2 [CE]2) [EG]2 | [Ec]3 [Ec] [DB][Ec] | ([Ge]2 [Fd]2) [Ac]2 | (c2 B2) [GB]2 | %5
 (c2 B2) [FA]2 | [EG]3 E [D^F][DA] | G4 [FG]2 | [EG]4 [CE]2 | [DE]4 [B,E]2 | %10
 [CA]3 [CA] [B,^G][CA] | (c2 B2) [=EA]2 | [Dd]4 [DG]2 | [EG][Ec] [Fc]2 [^Fc]2 | c4 [CE]2 | %15
 [EG]4 [B,F]2 | [CE]4 [CG]2 | [FG]4 [EG]2 | [FA]4 [Fc]2 | [Ec]4 |] %20
V:2
 x2 | x6 | x6 | x6 | G4 x2 | F4 x2 | x3 E x2 | (D2 E2) x2 | x6 | x6 | x6 | _E4 x2 | x6 | x6 | %14
 (G2 E2) x2 | x6 | x6 | x6 | x6 | x4 |] %20
V:3
 [C,C]2 | [C,C]4 [C,C]2 | [C,G,]3 [C,G,] [C,G,][C,G,] | [F,A,]4 [^F,D]2 | [G,D]4 [F,D]2 | %5
 [E,C]4 [F,C]2 | [G,C]3 [G,C] [A,C][^F,C] | [G,C]4 [G,B,]2 | [C,C]4 [C,G,]2 | [B,,^G,]4 [E,G,]2 | %10
 [A,,A,]3 [F,A,] [F,B,][F,A,] | (A,2 B,2) [=F,C]2 | (C2 B,2) [B,D]2 | [_B,C][B,C] [A,C]2 [_A,D]2 | %14
 (E2 C2) G,2 | (B,2 C2) [G,,D]2 | [A,,C]4 [E,C]2 | [D,B,]4 [C,C]2 | (C2 A,2) [F,_A,]2 | [C,G,]4 |] %20
V:4
 x2 | x6 | x6 | x6 | x6 | x6 | x6 | x6 | x6 | x6 | x6 | ^F,4 x2 | G,4 x2 | x6 | G,4 G,2 | G,,4 x2 | %16
 x6 | x6 | F,4 x2 | x4 |] %20

